X: 24070
T: Long Drop, The
R: reel
M: 4/4
K: Gmajor
|:g2dg edBA|GEDE EDB,E|DEGA BABc|dBed dBef|
g2dg edBA|GEDE EDB,E|DEGA (3Bcd ed|dBAc BAGB:|
|:gBBA B2gB|B2gB agge|c2cd edeg|gaba agef|
gBBA B2gB|B2gB agge|c2cd efge|dBAc BAGB:|

